packages/credential/logos/stonfi-white.svg

<svg width="24" height="24" viewBox="0 0 24 24" fill="none" xmlns="http://www.w3.org/2000/svg">
    <path
        d="M13.9822 15.5925C14.0807 15.5272 14.2172 15.5691 14.2577 15.6771L15.7901 19.7665C15.8394 19.898 15.7152 20.0288 15.5737 19.9945L9.93137 18.6269C9.77961 18.5901 9.74365 18.3996 9.87237 18.3143L13.9822 15.5925Z"
        fill="#fff" />
    <path
        d="M14.973 14.6906C14.966 14.6717 14.9624 14.6518 14.9624 14.6317V10.5103C14.9624 10.3937 14.8452 10.3099 14.7283 10.3429L9.89347 11.7098C9.77663 11.7429 9.65942 11.6591 9.65942 11.5425V8.87893C9.65942 8.82449 9.68598 8.77317 9.73126 8.74017L16.0317 4.14693C16.1192 4.0831 16.2455 4.10747 16.3003 4.1988L20.1064 10.5372C20.1333 10.5821 20.1381 10.6362 20.1193 10.6847L16.9149 18.9624C16.8557 19.1152 16.6296 19.114 16.5722 18.9607L14.973 14.6906Z"
        fill="#fff" />
    <path
        d="M8.04513 4.50361C8.07553 4.47511 8.11545 4.45769 8.15789 4.45437L13.973 4.00065C14.1546 3.98648 14.2432 4.20786 14.0982 4.31342L9.14174 7.9206C9.09586 7.95399 9.03618 7.96466 8.98078 7.94939L5.71692 7.04932C5.58267 7.0123 5.54001 6.85053 5.63984 6.75701L8.04513 4.50361Z"
        fill="#fff" />
    <path
        d="M4.80875 7.95553C4.82265 7.84911 4.93268 7.77976 5.04037 7.80955L8.49945 8.76637C8.57749 8.78793 8.63117 8.85625 8.63117 8.93397V12.8079C8.63117 12.9245 8.74849 13.0083 8.86537 12.9751L13.6666 11.6143C13.7835 11.5812 13.9008 11.665 13.9008 11.7816V14.2422C13.9008 14.2993 13.8715 14.3529 13.8225 14.3855L8.43729 17.9665C8.36705 18.0132 8.27233 18.0069 8.20949 17.9514L4.05867 14.2852C4.01543 14.2471 3.99411 14.1913 4.00141 14.1354L4.80875 7.95553Z"
        fill="#fff" />
</svg>

<svg width="24" height="24" fill="none" xmlns="http://www.w3.org/2000/svg"><path d="M13.982 15.592a.186.186 0 0 1 .276.085l1.532 4.09c.05.131-.075.262-.216.227L9.93 18.627a.172.172 0 0 1-.059-.313l4.11-2.722z" fill="#fff"/><path d="M14.973 14.69a.17.17 0 0 1-.01-.058V10.51c0-.116-.118-.2-.235-.167L9.893 11.71c-.116.033-.234-.05-.234-.168V8.88c0-.055.027-.106.072-.139l6.3-4.593a.187.187 0 0 1 .27.052l3.805 6.338a.168.168 0 0 1 .013.148l-3.204 8.277c-.06.153-.285.152-.343-.001l-1.599-4.27zM8.045 4.504a.186.186 0 0 1 .113-.05l5.815-.453c.182-.015.27.207.125.312L9.142 7.921a.19.19 0 0 1-.161.028l-3.264-.9a.172.172 0 0 1-.077-.292l2.405-2.253z" fill="#fff"/><path d="M4.809 7.956c.014-.107.124-.176.231-.146l3.46.956c.077.022.131.09.131.168v3.874c0 .117.117.2.234.167l4.802-1.36c.117-.034.234.05.234.167v2.46c0 .057-.03.11-.079.143l-5.385 3.582a.189.189 0 0 1-.228-.016l-4.15-3.666a.17.17 0 0 1-.058-.15l.808-6.18z" fill="#fff"/></svg>
